icons/24x24_buoy_filled.svg

<svg xmlns="http://www.w3.org/2000/svg" width="24" height="24" viewBox="0 0 24 24">
  <path fill-rule="evenodd" d="M7.28584794,13.6704486 L5,15.9562965 C5.6883275,17.1211733 6.66355031,18.0963961 7.82842712,18.7847236 L10.020355,16.5927957 C8.7492937,16.0441902 7.75109723,14.9833803 7.28584794,13.6704486 Z M7.3443829,10.17281 C7.8517308,8.88111448 8.88111448,7.8517308 10.17281,7.3443829 L7.82842712,5 C6.66355031,5.6883275 5.6883275,6.66355031 5,7.82842712 L7.3443829,10.17281 Z M13.6704486,7.28584794 C14.9833803,7.75109723 16.0441902,8.7492937 16.5927957,10.020355 L18.7847236,7.82842712 C18.0963961,6.66355031 17.1211733,5.6883275 15.9562965,5 L13.6704486,7.28584794 Z M16.6556171,13.82719 C16.1482692,15.1188855 15.1188855,16.1482692 13.82719,16.6556171 L15.9562965,18.7847236 C17.1211733,18.0963961 18.0963961,17.1211733 18.7847236,15.9562965 L16.6556171,13.82719 Z M12,22 C6.4771525,22 2,17.5228475 2,12 C2,6.4771525 6.4771525,2 12,2 C17.5228475,2 22,6.4771525 22,12 C22,17.5228475 17.5228475,22 12,22 Z M12,15 C13.6568542,15 15,13.6568542 15,12 C15,10.3431458 13.6568542,9 12,9 C10.3431458,9 9,10.3431458 9,12 C9,13.6568542 10.3431458,15 12,15 Z"/>
</svg>

<svg width="24" height="24" fill="none" xmlns="http://www.w3.org/2000/svg"><path fill-rule="evenodd" clip-rule="evenodd" d="M7.286 13.67 5 15.956a8.04 8.04 0 0 0 2.828 2.829l2.192-2.192a5.015 5.015 0 0 1-2.734-2.923Zm.058-3.497a5.016 5.016 0 0 1 2.829-2.829L7.828 5A8.04 8.04 0 0 0 5 7.828l2.344 2.345Zm6.326-2.887a5.015 5.015 0 0 1 2.923 2.734l2.192-2.192A8.04 8.04 0 0 0 15.956 5L13.67 7.286Zm2.986 6.541a5.016 5.016 0 0 1-2.829 2.829l2.13 2.129a8.039 8.039 0 0 0 2.828-2.829l-2.13-2.129ZM12 22C6.477 22 2 17.523 2 12S6.477 2 12 2s10 4.477 10 10-4.477 10-10 10Zm0-7a3 3 0 1 0 0-6 3 3 0 0 0 0 6Z" fill="#000"/></svg>
